tenants/donaldduck/icons/arrow_left.svg

<svg fill="none" height="24" viewBox="0 0 24 24" width="24" xmlns="http://www.w3.org/2000/svg"><path d="m23.4025 8.28351c-.2988-.30046-.6971-.40062-1.0954-.40062l-15.63489 1.50232v-3.10478c0-.60093-.29875-1.10169-.89625-1.20185-.49795-.20031-1.09545 0-1.3942.40062l-4.082997 5.6086c-.3983495.5008-.3983495 1.302 0 1.8028l4.082997 5.6086c.19915.3005.5975.5008.99585.5008.0996 0 .29875 0 .39835-.1002.4979-.2003.89625-.7011.89625-1.2018v-2.9045l15.83399 1.4022c.3984 0 .7967-.1002.9959-.3005.2987-.3005.4979-.6009.4979-1.0015v-5.50849c-.0996-.40062-.2988-.80124-.5975-1.1017zm-1.4938 5.90909-15.83399-1.4022c-.39835 0-.6971.1002-.99585.4006-.29875.3005-.49795.601-.49795 1.0016v1.302l-2.4896-3.5054 2.5892-3.50538v1.50231c0 .40057.19915.80117.39835 1.00147.29875.3005.5975.4007.99585.3005l15.83399-1.30197z" fill="#1b1d21"/></svg>

<svg width="24" height="24" viewBox="0 0 24 24" fill="none" xmlns="http://www.w3.org/2000/svg">
<path d="M23.4025 8.28351C23.1037 7.98305 22.7054 7.88289 22.3071 7.88289L6.67221 9.38521V6.28043C6.67221 5.6795 6.37346 5.17874 5.77596 5.07858C5.27801 4.87827 4.68051 5.07858 4.38176 5.4792L0.298763 11.0878C-0.0995865 11.5886 -0.0995865 12.3898 0.298763 12.8906L4.38176 18.4992C4.58091 18.7997 4.97926 19 5.37761 19C5.47721 19 5.67636 19 5.77596 18.8998C6.27386 18.6995 6.67221 18.1987 6.67221 17.698V14.7935L22.5062 16.1957C22.9046 16.1957 23.3029 16.0955 23.5021 15.8952C23.8008 15.5947 24 15.2943 24 14.8937V9.38521C23.9004 8.98459 23.7012 8.58397 23.4025 8.28351ZM21.9087 14.1926L6.07471 12.7904C5.67636 12.7904 5.37761 12.8906 5.07886 13.191C4.78011 13.4915 4.58091 13.792 4.58091 14.1926V15.4946L2.09131 11.9892L4.68051 8.48382V9.98613C4.68051 10.3867 4.87966 10.7873 5.07886 10.9876C5.37761 11.2881 5.67636 11.3883 6.07471 11.2881L21.9087 9.98613V14.1926Z" fill="#1B1D21"/>
</svg>
